data/icons/fingerprint-1.svg

<?xml version="1.0" encoding="UTF-8"?>
<svg width="24" height="24" fill="none" version="1.1" viewBox="0 0 24 24" xmlns="http://www.w3.org/2000/svg">
 <path d="m12.023 0.0029197c-3.0229-0.0645-6.0691 0.93954-8.5254 3.0254-0.07512 0.06377-0.13859 0.14281-0.18359 0.23047-0.045 0.08767-0.072048 0.18303-0.080078 0.28125-0.00802 0.09821 0.00303 0.19721 0.033203 0.29102 0.03017 0.0938 0.078808 0.18074 0.14258 0.25586 0.06377 0.07512 0.1428 0.13664 0.23047 0.18164 0.08766 0.045 0.18303 0.072058 0.28125 0.080078 0.09821 0.00802 0.19722-0.00303 0.29102-0.033203 0.09381-0.03017 0.18075-0.078798 0.25586-0.14258 4.3432-3.6882 10.74-3.5518 14.922 0.31836 0.0719 0.06909 0.1571 0.12228 0.25 0.1582 0.093 0.03592 0.19142 0.053641 0.29102 0.050781 0.0997-0.00286 0.19826-0.025216 0.28906-0.066406s0.17243-0.10072 0.24024-0.17383c0.0677-0.0731 0.1201-0.15832 0.1543-0.25195s0.04962-0.19341 0.04492-0.29297c-0.0048-0.09957-0.02947-0.19713-0.07227-0.28711-0.0429-0.08999-0.10344-0.1719-0.17774-0.23828-2.3651-2.1887-5.3638-3.3222-8.3867-3.3867zm-0.27344 2.9941c-0.03387 1.07e-5 -0.06766 0.00301-0.09961 0.00586-2.5414 0.026534-4.9742 1.041-6.7773 2.8359-1.8269 1.8186-2.8591 4.2856-2.8711 6.8633v2e-3c-7.9e-4 0.0122-0.00176 0.02491-0.00195 0.03711v0.03123c2.4e-4 0.0112 0.00121 0.02396 0.00195 0.03516 9.1e-4 1.9261 0.354 3.8351 1.0469 5.6328 0.07168 0.1857 0.21448 0.33532 0.39648 0.41602 0.18199 0.0806 0.38852 0.08537 0.57422 0.01367 0.1857-0.0716 0.33539-0.21448 0.41602-0.39648 0.08062-0.182 0.085362-0.38852 0.013672-0.57422-0.62162-1.6129-0.94352-3.3233-0.94922-5.0508v-0.09961c0-1.0834 0.21431-2.1573 0.62891-3.1582 0.4146-1.0009 1.021-1.9097 1.7871-2.6758 0.76608-0.76608 1.6768-1.3745 2.6777-1.7891s2.0728-0.62695 3.1562-0.62695 2.1554 0.21235 3.1562 0.62695c1.001 0.41461 1.9117 1.023 2.6777 1.7891 0.7661 0.76608 1.3725 1.6749 1.7871 2.6758 0.4146 1.0009 0.62891 2.0748 0.62891 3.1582 0 0.2955-0.05878 0.58648-0.17188 0.85938-0.113 0.273-0.27743 0.52157-0.48633 0.73047s-0.45747 0.37528-0.73047 0.48828c-0.2729 0.1131-0.56583 0.17188-0.86133 0.17188s-0.58833-0.05878-0.86133-0.17188c-0.273-0.113-0.52147-0.27938-0.73047-0.48828-0.2089-0.2089-0.37323-0.45747-0.48633-0.73047-0.1131-0.2729-0.17188-0.56388-0.17188-0.85938 0-0.4925-0.09676-0.98055-0.28516-1.4355-0.1885-0.4549-0.4643-0.8686-0.8125-1.2168-0.3483-0.34827-0.7619-0.62404-1.2168-0.8125-0.455-0.18845-0.94305-0.28516-1.4355-0.28516-0.9867 3.2e-4 -1.9331 0.38827-2.6348 1.082-0.70042 0.6925-1.1003 1.6325-1.1133 2.6172v0.0059l-0.00195 0.04293v0.0098c-0.01515 5.3338 4.2999 9.6951 9.6367 9.7422 0.0991 2e-3 0.19676-0.01633 0.28906-0.05273 0.0922-0.0364 0.17695-0.09106 0.24805-0.16016 0.0712-0.0691 0.12702-0.15099 0.16602-0.24219 0.0391-0.0912 0.05965-0.18986 0.06055-0.28906s-0.01729-0.19716-0.05469-0.28906-0.09221-0.17569-0.16211-0.24609-0.15449-0.12596-0.24609-0.16406c-0.0916-0.038-0.18996-0.05684-0.28906-0.05664-4.53-0.0399-8.1612-3.7126-8.1484-8.2383 0-0.0047 5.72e-5 -9e-3 0-0.01367 0-0.2955 0.058805-0.58648 0.17188-0.85938 0.11307-0.273 0.2794-0.52157 0.48828-0.73047 0.209-0.2089 0.45552-0.37528 0.72852-0.48828 0.273-0.1131 0.56593-0.17188 0.86133-0.17188 0.2955 0 0.58833 0.05877 0.86133 0.17188 0.273 0.113 0.52157 0.27938 0.73047 0.48828 0.209 0.2089 0.37323 0.45747 0.48633 0.73047 0.113 0.2729 0.17188 0.56388 0.17188 0.85938 0 0.4925 0.09666 0.98055 0.28516 1.4355 0.1884 0.4549 0.46625 0.8686 0.81445 1.2168 0.3482 0.3483 0.75984 0.6241 1.2148 0.8125 0.4549 0.1885 0.94315 0.28516 1.4355 0.28516 0.4925 0 0.98055-0.09666 1.4355-0.28516 0.455-0.1884 0.8686-0.4642 1.2168-0.8125 0.3482-0.3482 0.624-0.7619 0.8125-1.2168 0.1884-0.455 0.28516-0.94305 0.28516-1.4355 0-0.03803-0.0022-0.07409-0.0059-0.10938-2.06e-4 -2e-3 2.16e-4 -0.0039 0-0.0059-0.01474-1.241-0.26121-2.468-0.73633-3.6152-0.48996-1.1829-1.2078-2.2567-2.1132-3.1621-0.9053-0.90537-1.9792-1.6253-3.1621-2.1152s-2.452-0.74219-3.7324-0.74219zm-0.19141 0.017578c-0.09001 0.016504-0.17196 0.044937-0.24414 0.082031 0.0722-0.03708 0.1541-0.065551 0.24414-0.082031zm-0.37695 0.16797c-0.02 0.016025-0.0387 0.033201-0.05664 0.050781v-0.00195c0.01795-0.017579 0.03663-0.032806 0.05664-0.048828zm0.56836 2.8145c-1.7475 3.334e-4 -3.4231 0.68195-4.6797 1.8926-0.025755 0.021699-0.050905 0.043263-0.076172 0.068359-1.2378 1.2295-1.9455 2.8915-1.9863 4.6328-0.0033 0.02968-0.00534 0.06204-0.00586 0.09375v0.03711l-0.00195 0.02734v0.0078c-0.012 4.1007 1.9607 7.9574 5.293 10.352 0.1423 0.105 0.31569 0.15583 0.49219 0.14453 0.0251-0.0018 0.05147-0.0056 0.07617-0.0098 0.1471-0.0245 0.28222-0.09106 0.39062-0.19336 0.1083-0.1023 0.184-0.23546 0.2168-0.38086 0.0329-0.1454 0.02265-0.29655-0.03125-0.43555-0.0538-0.139-0.14733-0.25845-0.26953-0.34375-2.9405-2.1127-4.6782-5.5115-4.668-9.1289v-0.01367c0-0.6894 0.13655-1.3709 0.40039-2.0078 0.26383-0.637 0.64922-1.2156 1.1367-1.7031 0.03211-0.0321 0.064766-0.064483 0.097656-0.095703 0.46649-0.44291 1.0105-0.79651 1.6055-1.043 0.63699-0.26384 1.3204-0.40039 2.0098-0.40039s1.3728 0.13655 2.0098 0.40039c0.6369 0.26383 1.2156 0.65117 1.7031 1.1387 0.4875 0.48751 0.87282 1.0661 1.1367 1.7031 0.2638 0.6369 0.40039 1.3184 0.40039 2.0078 0 0.199 0.07805 0.39055 0.21875 0.53125 0.1406 0.1406 0.33235 0.21875 0.53125 0.21875 0.0985 0 0.19611-0.01904 0.28711-0.05664 0.091-0.0377 0.17454-0.09251 0.24414-0.16211 0.0697-0.0697 0.12441-0.15314 0.16211-0.24414s0.05664-0.18861 0.05664-0.28711c1e-4 -0.0234-0.0018-0.04691-0.0039-0.07031-0.0185-1.7775-0.7367-3.4759-2-4.7266-1.2632-1.2506-2.9685-1.9525-4.7461-1.9531zm-0.0098 5.9727c-0.1989 0.0024-0.38834 0.08426-0.52734 0.22656-0.13897 0.1423-0.21516 0.3343-0.21286 0.5332v0.0196c1e-4 0.0264 1e-3 0.05182 0.0039 0.07813 0.0428 3.6581 3.0154 6.6394 6.6855 6.6719 0.0992 0.0019 0.19872-0.01633 0.29102-0.05273 0.0922-0.0363 0.17499-0.09106 0.24609-0.16016 0.0712-0.0691 0.12897-0.15099 0.16797-0.24219s0.05965-0.18986 0.06055-0.28906-0.01729-0.19726-0.05469-0.28906c-0.0374-0.0919-0.09416-0.17569-0.16406-0.24609-0.0699-0.0703-0.15254-0.12606-0.24414-0.16406s-0.18986-0.05684-0.28906-0.05664c-2.8908-0.0255-5.2033-2.361-5.2031-5.25v-0.01563c0.0018-0.1004-0.01719-0.19987-0.05469-0.29297-0.0374-0.0931-0.09336-0.17695-0.16406-0.24805-0.0708-0.0712-0.15319-0.12802-0.24609-0.16602s-0.19452-0.05784-0.29492-0.05664z" fill="#555761" opacity=".5" stop-color="#000000" style="-inkscape-stroke:none;font-variation-settings:normal"/>
</svg>

<svg width="25" height="24" viewBox="0 0 25 24" fill="none" xmlns="http://www.w3.org/2000/svg">
<path d="M8.00001 12.7561C7.98486 18.0899 12.299 22.4502 17.6358 22.4973C17.7349 22.4993 17.8335 22.4816 17.9258 22.4452C18.018 22.4088 18.1022 22.3545 18.1733 22.2854C18.2445 22.2163 18.3012 22.1337 18.3402 22.0425C18.3793 21.9513 18.3998 21.8533 18.4007 21.7541C18.4016 21.6549 18.3828 21.5566 18.3454 21.4647C18.308 21.3728 18.2528 21.2893 18.1829 21.2189C18.113 21.1485 18.0299 21.0927 17.9383 21.0546C17.8467 21.0166 17.7484 20.9971 17.6493 20.9973C13.1193 20.9574 9.48755 17.2862 9.50034 12.7605C9.50034 11.6959 8.05528 11.6912 8.00155 12.6978L8.00148 12.7032L8.00006 12.7457L8.00001 12.7561Z" fill="#333333" fill-opacity="0.3"/>
<path fill-rule="evenodd" clip-rule="evenodd" d="M12.0225 0.00292101C8.99958 -0.061579 5.95336 0.941966 3.49708 3.02782C3.42196 3.09159 3.36013 3.16953 3.31513 3.25719C3.27013 3.34486 3.24283 3.44052 3.2348 3.53874C3.22678 3.63695 3.23817 3.73578 3.26834 3.82959C3.29851 3.92339 3.34686 4.01034 3.41063 4.08546C3.4744 4.16058 3.55234 4.22241 3.64001 4.26741C3.72767 4.31241 3.82334 4.3397 3.92156 4.34772C4.01977 4.35574 4.1186 4.34434 4.2124 4.31417C4.30621 4.284 4.39316 4.23565 4.46827 4.17187C8.81152 0.483626 15.2087 0.619586 19.3906 4.48974C19.4625 4.55883 19.5474 4.61292 19.6403 4.64884C19.7333 4.68476 19.8325 4.70178 19.9321 4.69892C20.0318 4.69606 20.1298 4.67337 20.2206 4.63218C20.3114 4.59099 20.393 4.53212 20.4608 4.45901C20.5285 4.38591 20.581 4.30003 20.6152 4.2064C20.6494 4.11277 20.6646 4.01327 20.6599 3.91371C20.6551 3.81414 20.6306 3.71652 20.5878 3.62654C20.5449 3.53655 20.4845 3.45602 20.4102 3.38964C18.0451 1.20091 15.0454 0.067421 12.0225 0.00292101ZM8.00001 12.7471L8.00006 12.7457L8.00001 12.7561V12.7471ZM11.741 11.9692C11.5421 11.9716 11.3523 12.0528 11.2133 12.1951C11.0743 12.3374 10.9975 12.5291 10.9998 12.728V12.7385V12.7475C10.9999 12.7739 11.0014 12.8003 11.0043 12.8266C11.0471 16.4847 14.0197 19.465 17.6898 19.4975C17.789 19.4994 17.8876 19.4817 17.9799 19.4453C18.0721 19.409 18.1563 19.3546 18.2274 19.2855C18.2986 19.2164 18.3553 19.1339 18.3943 19.0427C18.4333 18.9515 18.4539 18.8535 18.4548 18.7543C18.4557 18.6551 18.4369 18.5567 18.3995 18.4649C18.3621 18.373 18.3069 18.2894 18.237 18.219C18.1671 18.1487 18.084 18.0928 17.9924 18.0548C17.9008 18.0168 17.8025 17.9973 17.7033 17.9975C14.8125 17.972 12.5 15.6365 12.5002 12.7475V12.7325C12.502 12.6321 12.4836 12.5325 12.4461 12.4394C12.4087 12.3463 12.3529 12.2616 12.2822 12.1905C12.2114 12.1193 12.1271 12.0631 12.0342 12.0251C11.9413 11.9871 11.8414 11.968 11.741 11.9692Z" fill="#333333" fill-opacity="0.3"/>
<path d="M11.75 5.99706C9.96814 5.9974 8.2587 6.70229 6.99448 7.958C7.80301 7.15491 8.89484 8.12113 8.13518 8.93954C8.60167 8.49663 9.1459 8.14294 9.74091 7.89648C10.3779 7.63264 11.0606 7.49685 11.75 7.49685C12.4394 7.49685 13.1221 7.63264 13.7591 7.89648C14.396 8.16031 14.9748 8.54703 15.4623 9.03453C15.9498 9.52204 16.3365 10.1008 16.6004 10.7378C16.8642 11.3747 17 12.0574 17 12.7468C17 12.9458 17.079 13.1365 17.2197 13.2772C17.3603 13.4178 17.5511 13.4968 17.75 13.4968C17.8485 13.4968 17.946 13.4774 18.037 13.4398C18.128 13.4021 18.2107 13.3468 18.2803 13.2772C18.35 13.2075 18.4052 13.1249 18.4429 13.0339C18.4806 12.9429 18.5 12.8453 18.5 12.7468C18.5001 12.7234 18.4991 12.6999 18.497 12.6765C18.4785 10.899 17.7596 9.20057 16.4963 7.94995C15.2331 6.69933 13.5276 5.99773 11.75 5.99706Z" fill="#333333" fill-opacity="0.3"/>
<path d="M11.75 4.4971C12.8334 4.4971 13.9062 4.71049 14.9071 5.12509C15.9081 5.5397 16.8176 6.14739 17.5836 6.91347C18.3497 7.67955 18.9574 8.58903 19.372 9.58996C19.7866 10.5909 20 11.6637 20 12.7471C20 11.6949 21.5003 11.671 21.5003 12.747C21.5003 11.4666 21.2481 10.1988 20.7582 9.01583C20.2682 7.83291 19.55 6.75808 18.6446 5.8527C17.7393 4.94733 16.6644 4.22915 15.4815 3.73917C14.2986 3.24919 13.0304 2.99706 11.75 2.99706C10.6658 2.99706 10.5622 4.4971 11.75 4.4971Z" fill="#333333" fill-opacity="0.3"/>
<path d="M11.75 2.99706C9.17225 2.99742 6.69954 4.01858 4.87267 5.8372C3.04581 7.65583 2.01349 10.1239 2.00148 12.7016V12.7031C2.04084 13.8928 3.45801 13.9236 3.50003 12.8474L3.50001 12.7606V12.7471C3.50001 11.6637 3.7134 10.5909 4.128 9.58996C4.5426 8.58903 5.15029 7.67955 5.91638 6.91347C6.68246 6.14739 7.59193 5.5397 8.59287 5.12509C9.59381 4.71049 10.6666 4.4971 11.75 4.4971C10.5622 4.4971 10.6658 2.99706 11.75 2.99706Z" fill="#333333" fill-opacity="0.3"/>
<path d="M2.00148 12.7031C2.00069 12.7153 2.0002 12.7275 2.00001 12.7397V12.7472V12.7517V12.7562V12.7723C2.00025 12.7835 2.00074 12.7948 2.00148 12.806C2.00239 14.7321 2.35596 16.6421 3.04884 18.4398C3.12052 18.6255 3.26304 18.7751 3.44504 18.8558C3.62703 18.9364 3.83361 18.9414 4.01931 18.8697C4.20501 18.7981 4.35463 18.6555 4.43526 18.4735C4.51588 18.2915 4.52091 18.085 4.44922 17.8993C3.8276 16.2864 3.50573 14.5749 3.50003 12.8474C3.45801 13.9236 2.04084 13.8928 2.00148 12.7031Z" fill="#333333" fill-opacity="0.3"/>
<path d="M5.00148 12.7002V12.7207L5.00001 12.7471V12.7561C4.98801 16.8568 6.96021 20.7125 10.2925 23.1067C10.4348 23.2117 10.6096 23.2631 10.7861 23.2518C10.8112 23.25 10.8361 23.247 10.8608 23.2428C11.0079 23.2183 11.1443 23.1505 11.2527 23.0482C11.361 22.9459 11.4365 22.8136 11.4693 22.6682C11.5022 22.5228 11.491 22.3709 11.4371 22.2319C11.3833 22.0929 11.2892 21.9731 11.167 21.8878C8.22654 19.7751 6.48976 16.3777 6.49999 12.7603V12.7468C6.49999 11.6896 5.01839 11.6682 5.00162 12.6828L5.00148 12.7002Z" fill="#333333" fill-opacity="0.3"/>
<path d="M6.49999 12.7468C6.49999 12.0574 6.63579 11.3747 6.89963 10.7378C7.16346 10.1008 7.55018 9.52204 8.03768 9.03453C8.06979 9.00243 8.10229 8.97076 8.13518 8.93954C8.89484 8.12113 7.80301 7.15491 6.99448 7.958C5.73439 9.20961 5.01853 10.9072 5.00162 12.6828C5.01839 11.6682 6.49999 11.6896 6.49999 12.7468Z" fill="#333333" fill-opacity="0.3"/>
<path d="M15.5 12.7471C15.5 12.2546 15.403 11.767 15.2146 11.312C15.0261 10.8571 14.7499 10.4437 14.4017 10.0955C14.0534 9.74723 13.64 9.47101 13.1851 9.28255C12.7301 9.0941 12.2425 8.9971 11.75 8.9971C10.7633 8.99742 9.81642 9.38664 9.11472 10.0804C8.4143 10.7729 8.01449 11.7131 8.00155 12.6978C8.05528 11.6912 9.50034 11.6959 9.50034 12.7605V12.747C9.50034 12.4515 9.55854 12.1589 9.67161 11.886C9.78468 11.613 9.95042 11.3649 10.1593 11.156C10.3683 10.9471 10.6163 10.7813 10.8893 10.6683C11.1623 10.5552 11.4549 10.497 11.7503 10.497C12.0458 10.497 12.3384 10.5552 12.6114 10.6683C12.8844 10.7813 13.1324 10.9471 13.3413 11.156C13.5503 11.3649 13.716 11.613 13.8291 11.886C13.9421 12.1589 14.0003 12.4515 14.0003 12.747C14.0003 14.0348 15.5 14.0276 15.5 12.7471Z" fill="#333333" fill-opacity="0.3"/>
<path d="M20 12.7471C20 13.0426 19.9418 13.3352 19.8287 13.6081C19.7157 13.8811 19.5499 14.1292 19.341 14.3381C19.1321 14.547 18.884 14.7128 18.611 14.8258C18.3381 14.9389 18.0455 14.9971 17.75 14.9971C17.4545 14.9971 17.162 14.9389 16.889 14.8258C16.616 14.7128 16.368 14.547 16.159 14.3381C15.9501 14.1292 15.7844 13.8811 15.6713 13.6081C15.5582 13.3352 15.5 13.0426 15.5 12.7471C15.5 14.0276 14.0003 14.0348 14.0003 12.747C14.0003 13.2395 14.0973 13.7271 14.2858 14.1821C14.4742 14.637 14.7505 15.0504 15.0987 15.3986C15.4469 15.7469 15.8603 16.0231 16.3153 16.2115C16.7702 16.4 17.2579 16.497 17.7503 16.497C18.2428 16.497 18.7304 16.4 19.1854 16.2115C19.6404 16.0231 20.0538 15.7469 20.402 15.3986C20.7502 15.0504 21.0264 14.637 21.2149 14.1821C21.4033 13.7271 21.5003 13.2395 21.5003 12.747C21.5003 11.671 20 11.6949 20 12.7471Z" fill="#333333" fill-opacity="0.3"/>
</svg>
